X: 10
T: My Love Is In America
Z: mick davis
S: https://thesession.org/tunes/77#setting51980
R: reel
M: 4/4
L: 1/8
K: Dmaj
|:TrFEFG AB (3=cBA|Adcd fdAG|TrFEFG AB (3=cBA|GBAG FDDE|
TrFEFG AB (3=cBA|Addc defg|af (3gfe fd AF|1 GBAG FDDE:|2 GBAG FDDg||
|:fded fdec|Ad d/c/d Adeg|fded fdAF|GBAG FDDg|
fded fdec|Ad d/d/c defg|af (3gfe fdAF|1 GBAG FDDg:|2 GBAG FD D2||

